X: 20641
T: PORT NA FAINNE
T: "the WEDDING RING"
T: Or "MRS. NICOL'S FANCY."
%R: reel
B: W. Hamilton "Universal Tune-Book" Vol. 2 Glasgow 1846 p.64 #1
S: http://s3-eu-west-1.amazonaws.com/itma.dl.printmaterial/book_pdfs/hamiltonvol2web.pdf
Z: 2016 John Chambers <jc:trillian.mit.edu>
M: C|
L: 1/8
K: Gm
%%slurgraces yes
%%graceslurs yes
% - - - - - - - - - - - - - - - - - - - - - - - - -
A |\
{A}B2dA {A}B2dA | {A}B2fB AFFA |\
{A}B2df bfdB | AdD^F G2G :|\
F |\
DG^FG BGA=F | CF=EF AFFA |
DG^FG BGA=F | AdD^F G2G=f |\
dgga bgaf | cffg afcf |\
dgbg fbdB | AdD^F G2G |]
% - - - - - - - - - - - - - - - - - - - - - - - - -

%%sep 1 1 500
%%sep 1 1 500

